public/svg/react-query.svg

<svg width="100" height="90" viewBox="0 0 100 90" fill="none" xmlns="http://www.w3.org/2000/svg">
<path fill-rule="evenodd" clip-rule="evenodd" d="M61.711 55.659L59.7928 58.9897C59.215 59.9931 58.1453 60.6115 56.9874 60.6115H42.2932C41.1353 60.6115 40.0656 59.9931 39.4877 58.9897L37.5694 55.659H61.711ZM67.0809 46.3347L63.6987 52.2074H35.5817L32.1996 46.3347H67.0809ZM63.823 37.2167L67.0863 42.8833H32.1942L35.4576 37.2167H63.823ZM56.9874 28.5971C58.1453 28.5971 59.215 29.2155 59.7928 30.2189L61.8352 33.7651H37.4453L39.4877 30.2189C40.0656 29.2155 41.1353 28.5971 42.2932 28.5971H56.9874Z" fill="#00435B"/>
<path d="M20.9074 27.0515C19.2796 19.1586 18.9303 13.1048 19.9824 8.70886C20.6082 6.09442 21.7523 3.9616 23.4919 2.4228C25.3285 0.798237 27.6505 0.00106017 30.2596 0.00106017C34.5638 0.00106017 39.0886 1.96382 43.9241 5.69256C45.8964 7.21344 47.9434 9.04662 50.0693 11.1931C50.2385 10.9753 50.4298 10.7698 50.6429 10.5799C56.6531 5.22393 61.7133 1.89618 66.0413 0.613096C68.6147 -0.149824 71.0308 -0.222508 73.231 0.517932C75.5535 1.29951 77.404 2.91516 78.7096 5.17816C80.8644 8.91293 81.4326 13.8204 80.6293 19.88C80.3018 22.3499 79.742 25.0403 78.9511 27.9555C79.2495 27.9915 79.5486 28.0577 79.8448 28.1558C87.4705 30.6829 92.8703 33.4004 96.1395 36.5061C98.0846 38.3539 99.3547 40.411 99.8139 42.6882C100.299 45.0917 99.826 47.5025 98.5219 49.7638C96.3712 53.4932 92.4167 56.4345 86.7829 58.7642C84.5208 59.6997 81.9614 60.5469 79.1017 61.3089C79.2322 61.6035 79.3334 61.9164 79.4011 62.2446C81.0289 70.1375 81.3782 76.1914 80.326 80.5873C79.7003 83.2017 78.5562 85.3345 76.8166 86.8733C74.98 88.4979 72.6579 89.2951 70.0489 89.2951C65.7447 89.2951 61.2199 87.3323 56.3844 83.6036C54.3911 82.0665 52.3215 80.2105 50.1713 78.0344C49.95 78.3804 49.6784 78.7021 49.3571 78.9884C43.3469 84.3444 38.2867 87.6722 33.9587 88.9552C31.3853 89.7182 28.9692 89.7908 26.769 89.0504C24.4465 88.2688 22.596 86.6532 21.2904 84.3902C19.1356 80.6554 18.5674 75.7479 19.3707 69.6884C19.71 67.1292 20.2987 64.3332 21.1356 61.2958C20.8085 61.2627 20.48 61.1935 20.1552 61.0859C12.5295 58.5588 7.12969 55.8413 3.86052 52.7356C1.91544 50.8878 0.645278 48.8307 0.186124 46.5535C-0.298514 44.15 0.174045 41.7392 1.47813 39.4779C3.62884 35.7485 7.58335 32.8072 13.2171 30.4775C15.5466 29.5141 18.1914 28.6444 21.1547 27.865C21.0491 27.6065 20.9658 27.3347 20.9074 27.0515Z" fill="#002B3B"/>
<path fill-rule="evenodd" clip-rule="evenodd" d="M40.4917 24.5371C44.4446 24.2225 48.519 24.0835 52.7148 24.1203C53.5094 24.1272 54.1592 23.4887 54.1662 22.6941C54.1691 22.3594 54.0553 22.0342 53.8443 21.7744C44.2943 10.0159 36.4307 4.13672 30.2534 4.13672C23.876 4.13672 22.0566 11.1666 24.7953 25.2263C24.9454 25.997 25.6856 26.505 26.4587 26.368C31.3344 25.5039 36.0121 24.8936 40.4917 24.5371Z" fill="#FF4154"/>
<path fill-rule="evenodd" clip-rule="evenodd" d="M62.6818 26.4724C64.9647 29.7619 67.1556 33.2455 69.2547 36.9232C69.6487 37.6133 70.5275 37.8535 71.2176 37.4596C71.507 37.2944 71.7301 37.0339 71.8488 36.7225C77.2509 22.5532 78.3862 12.7814 75.2548 7.4072C72.0234 1.86141 64.9825 3.779 54.1322 13.16C53.5356 13.6757 53.4654 14.5756 53.9747 15.1777C57.1985 18.9885 60.1009 22.7534 62.6818 26.4724Z" fill="#FF4154"/>
<path fill-rule="evenodd" clip-rule="evenodd" d="M72.2631 46.2676C70.5546 49.8584 68.6342 53.4674 66.5019 57.0944C66.0992 57.7794 66.328 58.6612 67.0131 59.064C67.3031 59.2345 67.6438 59.2979 67.9757 59.2434C82.8629 56.7956 91.8526 52.8888 94.9449 47.523C98.1386 41.9812 93.0027 36.9019 79.5372 32.285C78.7954 32.0307 77.9866 32.4172 77.7184 33.1541C76.0193 37.824 74.2008 42.1952 72.2631 46.2676Z" fill="#FF4154"/>
<path fill-rule="evenodd" clip-rule="evenodd" d="M60.0479 64.8515C56.095 65.1661 52.0206 65.305 47.8248 65.2683C47.0302 65.2613 46.3803 65.8998 46.3734 66.6945C46.3705 67.0291 46.4843 67.3544 46.6953 67.6142C56.2452 79.3726 64.1088 85.2518 70.2861 85.2518C76.6636 85.2518 78.483 78.222 75.7443 64.1622C75.5942 63.3916 74.854 62.8836 74.0809 63.0206C69.2051 63.8847 64.5275 64.495 60.0479 64.8515Z" fill="#FF4154"/>
<path fill-rule="evenodd" clip-rule="evenodd" d="M37.3182 63.0959C35.0353 59.8064 32.8444 56.3228 30.7453 52.6451C30.3513 51.9549 29.4725 51.7148 28.7824 52.1087C28.493 52.2739 28.2699 52.5344 28.1512 52.8458C22.7491 67.0151 21.6138 76.7869 24.7452 82.1611C27.9766 87.7069 35.0175 85.7893 45.8678 76.4083C46.4644 75.8926 46.5346 74.9927 46.0253 74.3906C42.8015 70.5798 39.8991 66.8149 37.3182 63.0959Z" fill="#FF4154"/>
<path fill-rule="evenodd" clip-rule="evenodd" d="M27.7369 42.7612C29.4454 39.1704 31.3658 35.5614 33.4981 31.9344C33.9008 31.2494 33.6719 30.3675 32.9869 29.9648C32.6969 29.7943 32.3562 29.7308 32.0243 29.7854C17.1371 32.2332 8.14738 36.1399 5.05508 41.5058C1.86137 47.0475 6.99727 52.1269 20.4628 56.7438C21.2046 56.9981 22.0134 56.6116 22.2816 55.8747C23.9807 51.2048 25.7992 46.8336 27.7369 42.7612Z" fill="#FF4154"/>
<path fill-rule="evenodd" clip-rule="evenodd" d="M43.4744 28.777H55.8088C57.6126 28.777 59.2787 29.7418 60.1766 31.3063L66.3698 42.0976C67.2607 43.65 67.2607 45.5586 66.3698 47.111L60.1766 57.9024C59.2787 59.4669 57.6126 60.4317 55.8088 60.4317H43.4744C41.6706 60.4317 40.0045 59.4669 39.1066 57.9024L32.9134 47.111C32.0225 45.5586 32.0225 43.65 32.9134 42.0976L39.1066 31.3063C40.0045 29.7418 41.6706 28.777 43.4744 28.777ZM53.9289 32.0341C55.7337 32.0341 57.4005 32.9998 58.298 34.5656L62.6167 42.0999C63.5058 43.6511 63.5058 45.5575 62.6167 47.1087L58.298 54.643C57.4005 56.2088 55.7337 57.1746 53.9289 57.1746H45.3543C43.5495 57.1746 41.8827 56.2088 40.9852 54.643L36.6665 47.1087C35.7774 45.5575 35.7774 43.6511 36.6665 42.0999L40.9852 34.5656C41.8827 32.9998 43.5495 32.0341 45.3543 32.0341H53.9289ZM51.9027 35.5965H47.3805C45.5776 35.5965 43.9122 36.5603 43.014 38.1236L40.7319 42.0954C39.8393 43.6489 39.8393 45.5597 40.7319 47.1132L43.014 51.0851C43.9122 52.6483 45.5776 53.6122 47.3805 53.6122H51.9027C53.7056 53.6122 55.371 52.6483 56.2692 51.0851L58.5514 47.1132C59.4439 45.5597 59.4439 43.6489 58.5514 42.0954L56.2692 38.1236C55.371 36.5603 53.7056 35.5965 51.9027 35.5965ZM49.9517 39.0062C51.7533 39.0062 53.4176 39.9686 54.3163 41.53L54.6399 42.0922C55.535 43.6473 55.535 45.5613 54.6399 47.1165L54.3163 47.6786C53.4176 49.24 51.7533 50.2024 49.9517 50.2024H49.3315C47.5299 50.2024 45.8656 49.24 44.9669 47.6786L44.6433 47.1165C43.7482 45.5613 43.7482 43.6473 44.6433 42.0922L44.9669 41.53C45.8656 39.9686 47.5299 39.0062 49.3315 39.0062H49.9517ZM49.6424 42.3651C48.8406 42.3651 48.1011 42.7918 47.7007 43.4847C47.3004 44.1774 47.3004 45.0312 47.7007 45.7239C48.1011 46.4168 48.8406 46.8436 49.6408 46.8436C50.4426 46.8436 51.1821 46.4168 51.5825 45.7239C51.9828 45.0312 51.9828 44.1774 51.5825 43.4847C51.1821 42.7918 50.4426 42.3651 49.6424 42.3651ZM31.4748 44.6043H35.5064H31.4748Z" fill="#FFD94C"/>
</svg>

<svg width="100" height="90" viewBox="0 0 100 90" fill="none" xmlns="http://www.w3.org/2000/svg"><path fill-rule="evenodd" clip-rule="evenodd" d="m61.711 55.659-1.918 3.33a3.237 3.237 0 0 1-2.806 1.623H42.293a3.238 3.238 0 0 1-2.805-1.622l-1.919-3.331h24.142zm5.37-9.324-3.382 5.872H35.582L32.2 46.335h34.88zm-3.258-9.118 3.263 5.666H32.194l3.264-5.666h28.365zm-6.836-8.62c1.158 0 2.228.618 2.806 1.622l2.042 3.546h-24.39l2.043-3.546a3.238 3.238 0 0 1 2.805-1.622h14.694z" fill="#00435B"/><path d="M20.907 27.052c-1.627-7.893-1.977-13.947-.925-18.343.626-2.615 1.77-4.747 3.51-6.286C25.328.798 27.65 0 30.26 0c4.304 0 8.829 1.963 13.664 5.692 1.972 1.52 4.02 3.354 6.145 5.5.17-.218.36-.423.574-.613 6.01-5.356 11.07-8.684 15.398-9.967 2.574-.763 4.99-.836 7.19-.095 2.323.782 4.173 2.397 5.479 4.66 2.154 3.735 2.723 8.642 1.92 14.702-.328 2.47-.888 5.16-1.679 8.076.299.035.598.102.894.2 7.626 2.527 13.025 5.244 16.294 8.35 1.946 1.848 3.216 3.905 3.675 6.182.485 2.404.012 4.814-1.292 7.076-2.15 3.73-6.105 6.67-11.74 9-2.261.936-4.82 1.783-7.68 2.545.13.294.231.607.3.936 1.627 7.893 1.976 13.946.924 18.342-.626 2.615-1.77 4.748-3.51 6.286-1.836 1.625-4.158 2.422-6.767 2.422-4.304 0-8.83-1.963-13.665-5.691-1.993-1.537-4.063-3.394-6.213-5.57a4.588 4.588 0 0 1-.814.954c-6.01 5.356-11.07 8.684-15.398 9.967-2.574.763-4.99.836-7.19.095-2.322-.781-4.173-2.397-5.479-4.66-2.154-3.735-2.723-8.642-1.92-14.702.34-2.559.929-5.355 1.766-8.392a4.583 4.583 0 0 1-.98-.21C12.53 58.559 7.13 55.84 3.86 52.736 1.915 50.888.645 48.83.186 46.554c-.485-2.404-.012-4.815 1.292-7.076 2.15-3.73 6.105-6.67 11.74-9 2.329-.964 4.973-1.834 7.937-2.613a4.613 4.613 0 0 1-.248-.813z" fill="#002B3B"/><path fill-rule="evenodd" clip-rule="evenodd" d="M40.492 24.537a138.74 138.74 0 0 1 12.223-.417 1.439 1.439 0 0 0 1.13-2.346C44.294 10.016 36.43 4.137 30.252 4.137c-6.377 0-8.196 7.03-5.458 21.09.15.77.89 1.278 1.664 1.141 4.875-.864 9.553-1.474 14.033-1.83zm22.19 1.935a140.291 140.291 0 0 1 6.573 10.451 1.439 1.439 0 0 0 2.594-.2c5.402-14.17 6.537-23.942 3.406-29.316-3.232-5.546-10.272-3.628-21.123 5.753a1.439 1.439 0 0 0-.157 2.018c3.224 3.81 6.126 7.575 8.707 11.294zm9.581 19.796a140.43 140.43 0 0 1-5.761 10.826 1.439 1.439 0 0 0 1.474 2.15c14.887-2.448 23.877-6.355 26.969-11.721 3.194-5.542-1.942-10.621-15.408-15.238a1.439 1.439 0 0 0-1.819.87c-1.699 4.669-3.517 9.04-5.455 13.113zM60.048 64.852c-3.953.314-8.027.453-12.223.416a1.439 1.439 0 0 0-1.13 2.346c9.55 11.759 17.414 17.638 23.591 17.638 6.378 0 8.197-7.03 5.458-21.09a1.439 1.439 0 0 0-1.663-1.141c-4.876.864-9.553 1.474-14.033 1.83zm-22.73-1.756a140.291 140.291 0 0 1-6.573-10.45 1.439 1.439 0 0 0-2.594.2c-5.402 14.17-6.537 23.94-3.406 29.315 3.232 5.546 10.272 3.628 21.123-5.753a1.439 1.439 0 0 0 .157-2.017c-3.224-3.811-6.126-7.576-8.707-11.295zm-9.581-20.335a140.43 140.43 0 0 1 5.761-10.827 1.439 1.439 0 0 0-1.474-2.149C17.137 32.233 8.147 36.14 5.055 41.505c-3.194 5.542 1.942 10.622 15.408 15.239a1.439 1.439 0 0 0 1.819-.87c1.699-4.67 3.517-9.04 5.455-13.113z" fill="#FF4154"/><path fill-rule="evenodd" clip-rule="evenodd" d="M43.474 28.777H55.81c1.804 0 3.47.965 4.368 2.53l6.193 10.79a5.036 5.036 0 0 1 0 5.014l-6.193 10.791a5.036 5.036 0 0 1-4.368 2.53H43.474a5.036 5.036 0 0 1-4.367-2.53l-6.194-10.791a5.036 5.036 0 0 1 0-5.013l6.194-10.792a5.036 5.036 0 0 1 4.367-2.529zm10.455 3.257c1.805 0 3.471.966 4.369 2.532l4.319 7.534a5.036 5.036 0 0 1 0 5.009l-4.319 7.534a5.036 5.036 0 0 1-4.37 2.532h-8.574a5.036 5.036 0 0 1-4.369-2.532l-4.319-7.534a5.036 5.036 0 0 1 0-5.01l4.32-7.533a5.036 5.036 0 0 1 4.368-2.532h8.575zm-2.026 3.563H47.38a5.036 5.036 0 0 0-4.366 2.527l-2.282 3.971a5.036 5.036 0 0 0 0 5.018l2.282 3.972a5.036 5.036 0 0 0 4.366 2.527h4.523a5.036 5.036 0 0 0 4.366-2.527l2.282-3.972a5.037 5.037 0 0 0 0-5.018l-2.282-3.971a5.036 5.036 0 0 0-4.366-2.528zm-1.951 3.41c1.801 0 3.466.962 4.364 2.523l.324.562a5.036 5.036 0 0 1 0 5.025l-.324.562a5.036 5.036 0 0 1-4.364 2.523h-.62a5.036 5.036 0 0 1-4.365-2.523l-.324-.563a5.036 5.036 0 0 1 0-5.024l.324-.562a5.036 5.036 0 0 1 4.364-2.524h.62zm-.31 3.358a2.241 2.241 0 0 0-1.941 3.359 2.24 2.24 0 0 0 3.882-2.24 2.24 2.24 0 0 0-1.94-1.119zm-18.167 2.24h4.031-4.031z" fill="#FFD94C"/></svg>
